X:277
L:1/8
M:4/4
K:C
 BEA |[M:2/2][K:G]SOSOO .!fermata!PMTuCOMDG{A}GF DG{A}GF | F2 (AF) cFAF | DG{A}GF DGGg |1 
 fdcA BGAF :|2 fdcA BG G2 || g2 bg dgbg | f2 af dfaf | g2 bg dgbg | agfa g2 (ga) | bgaf gdde | 
 fefd cAGF | dggf (3(gab) a g | fdcA BGAF |]

